packages/react-icons/icons/login.svg

<svg width="24" height="25" viewBox="0 0 24 25" xmlns="http://www.w3.org/2000/svg"><path fill-rule="evenodd" clip-rule="evenodd" d="M10.5737 8.66444C10.2217 8.31355 9.65184 8.3145 9.30095 8.66656C8.95006 9.01862 8.95101 9.58847 9.30307 9.93935L10.9685 11.5992L3.90098 11.5992C3.40392 11.5992 3.00098 12.0022 3.00098 12.4992C3.00098 12.9963 3.40392 13.3992 3.90098 13.3992L10.9685 13.3992L9.30306 15.0592C8.951 15.4101 8.95006 15.9799 9.30095 16.332C9.65184 16.684 10.2217 16.685 10.5738 16.3341L13.7818 13.1367C13.9512 12.9678 14.0465 12.7384 14.0465 12.4992C14.0465 12.26 13.9512 12.0306 13.7818 11.8618L10.5737 8.66444ZM11.4498 5.39759C11.4498 5.89465 11.8527 6.29759 12.3498 6.29759L14.1861 6.29759L18.1452 6.29759L18.1452 11.2987L18.1452 13.6993L18.1452 13.7002L18.1452 18.7L14.1861 18.7L12.3498 18.7C11.8527 18.7 11.4498 19.1029 11.4498 19.6C11.4498 20.0971 11.8527 20.5 12.3498 20.5L14.1861 20.5L18.8453 20.5C19.4528 20.5 19.9453 20.0075 19.9453 19.4L19.9453 13.6993L19.9453 11.2987L19.9453 5.59759C19.9453 4.99008 19.4528 4.49759 18.8453 4.49759L14.1861 4.49759L12.3498 4.49759C11.8527 4.49759 11.4498 4.90054 11.4498 5.39759Z"/></svg>

<svg xmlns="http://www.w3.org/2000/svg" width="24" height="25"><path fill-rule="evenodd" d="M10.574 8.664a.9.9 0 1 0-1.27 1.275l1.665 1.66H3.9a.9.9 0 0 0 0 1.8h7.068l-1.666 1.66a.9.9 0 1 0 1.27 1.275l3.209-3.197a.9.9 0 0 0 0-1.275l-3.208-3.198Zm.876-3.266a.9.9 0 0 0 .9.9h5.796V18.7H12.35a.9.9 0 1 0 0 1.8h6.496a1.1 1.1 0 0 0 1.1-1.1V5.598a1.1 1.1 0 0 0-1.1-1.1H12.35a.9.9 0 0 0-.9.9Z" clip-rule="evenodd"/></svg>
